!!!OTL: 1a. Die schoene Hannale
!!!ARE: Europa, Mitteleuropa, Deutschland, Schlesien, Goldberg, Neukirch
!!!SCT: E0001A
!!!TXL: @@DE
!!!YEM: Copyright 1995, estate of Helmut Schaffrath.
**kern	**text
*ICvox	*
*M2/4	*
*k[b-]	*
*F:	*
!LO:TX:a:t=Mäßig.	!
!LO:TX:a:t=Aus Neukirch bei Goldberg in Schlesien.	!
{8c	Es
=1	=1
8f	freit
8f	ein
8f	wil-
8a	-der
=2	=2
8cc	Waſ-
8a	-ſer-
4f}	-mann
=3	=3
{8a	[von
8cc	dem
8cc	Berg
8cc	und
=4	=4
8ff	tie-
8cc	-fen
8a}	Thal,
{8a	wohl
=5	=5
4cc	ü-
16ddL	-ber
16ccJ	.
16b-L	die
16aJ	.
=6	=6
4g	See,]
8r}	.
{8g	er
=7	=7
8f	freit
8a	nach
8cc	kö-
8a	-nig-
=8	=8
8g	-li-
8a	-chem
8b-}	Stamm,
{8g	er
=9	=9
8f	freit
8a	nach
8cc	kö-
8a	-nig-
=10	=10
8g	-li-
8a	-chem
8b-}	Stamm,
{16g	nach
16g	der
=11	=11
8f	ſchö-
8a	-nen
16ccL	Han-
16b-J	.
8g	-na-
=12	=12
4f	-le.
8r}	.
==	==
!!!AGN: Sage, Maerchen -, Zauber - Lied, Ballade ?
!!!ONB: ESAC (Essen Associative Code) Database: ERK1
!!!AMT: simple duple
!!!AIN: vox
!!!EED: Helmut Schaffrath
!!!EEV: 1.0
!!!GTL: Nachtklaenge der Goettersage (Zaubermaeren)
!!!URL-scan: https://rosdok.uni-rostock.de/mcrviewer/recordIdentifier/rosdok_ppn745146120/iview2/phys_0065.iview2?x=-4.404412318551749&y=640.876861914614&scale=0.6456904138606624&rotation=0&layout=singlePageLayout&logicalDiv=log_0009
!!!ENC: Anna Maria Matuszewska
!!!EEV: 2024/21/11
*-	*-
